!!!!SEGMENT: pl-wtm--r-90-n--004_noskowski-zygmunt--piesni-op-63-jak-to-wiele-bylo-strachu.krn
!!!cenid: 18xx:2123
!!!COM: Noskowski, Zygmunt
!!!COM-rismid: pe106604
!!!CDT: 1846/05/02-1909/07/23
!!!CNT: Polish
!!!GTL: Pieśni op. 63
!!!OTL: Jak to wiele było strachu
!!!PDT: 1899
!!!AGN: Secular; Song
!!!SMS-siglum: PL-Wtm
!!!SMS-shelfmark: R 90/N
!!!SMS-shelfwork: 004 G
!!!SMS-variant:
!!!SMS-altvar:
!!!NIFC-rismid: 1001099996
!!!URL-scan: http://repozytorium.nifc.pl/skany/pl-wtm-nut--r90n
!!!ONB-nifc: UWAGA: w zbiorze 10 krótkich pieśni
!!!OMD: Quasi Andante
!!!key:
**kern	**kern	**text
*part1	*part1	*part1
*staff2	*staff1	*staff1
*Iempty	*Iempty	*
*I"	*I"	*
*clefF4	*clefG2	*
*k[b-]	*k[b-]	*
*d:	*d:	*
*M3/4	*M3/4	*
=1	=1	=1
8.D\	8.d/	Jak
16F\	16f/	to
8A\	8a/	wie-
8G\	8g/	-le
8E\	8e/	by-
8B-\	8b-\	-ło
=2	=2	=2
4A\	4a/	stra-
2d\	2dd\	-chu,
=3	=3	=3
8.c\	8.cc\	Kie-
16A\	16a/	-dy
8B-\	8b-\	pa-
8A\	8a/	-jąk
8G\	8g/	u-
8E\	8e/	-padł
=4	=4	=4
4A\	4a/	z da-
2D\	2d/	-chu
=5	=5	=5
*	*^	*
4A 4AA\	8e/	4c\	zła-
.	8e/	.	-mał
2A 2D\	4.f/	2Bn\	so-
.	8g/	.	-bie
!!LO:LB:g=original
=6	=6	=6	=6
4A 4AA\	8f/	4c\	no-
.	8e/	.	-gę
2E 2AA/	4a/	2c\	w sta-
.	4g/	.	-wie
=7	=7	=7	=7
4F 4D\	8f/	4d\	Wszys-
.	8a/	.	-tkie
4d 4A 4F\	4.dd/	4.dd\	koś-
4d 4B- 4G\	.	.	.
.	(16cc\LL	8rcyy	-ci
.	16b-\JJ)	.	.
*	*v	*v	*
=8	=8	=8
4d 4A\	8a/	wy-
.	(16g/LL	-szły
.	16f/JJ)	.
4c#X 4A\	(4e/	pra-
4G 4AA\	4c#X/)	.
=9	=9	=9
!	!LO:N:vis=2	!
4F 4D\	[2.d/	-wie
4cn 4A 4D\	.	.
4B- 4E 4D\	.	.
=10	=10	=10
4A 4F 4D\	2d/]	.
4DD/	.	.
4r	4r	.
==	==	==
*-	*-	*-
!!!system-decoration: {(s1,s2)}
!!!AIN: 1 empty
!!!ENC: Marta Lawrence
!!!END: 2021-06-02
!!!ENC: Mateusz Solarz
!!!END: 2021-05-11
